assets/images/icons/lock1.svg

<svg height="512" viewBox="0 0 361.118 361.118" width="512" xmlns="http://www.w3.org/2000/svg"><path d="m274.765 141.3v-47.095c0-52.033-42.182-94.205-94.206-94.205-52.032 0-94.205 42.172-94.205 94.205v47.095c-17.34 0-31.4 14.06-31.4 31.4v157.016c0 17.344 14.06 31.402 31.4 31.402h188.411c17.341 0 31.398-14.059 31.398-31.402v-157.016c.001-17.34-14.057-31.4-31.398-31.4zm-157.009-47.095c0-34.69 28.12-62.803 62.803-62.803 34.685 0 62.805 28.112 62.805 62.803v47.095h-125.608zm157.009 235.51h-188.411v-157.007h188.411zm-109.907-67.157v20.054c0 8.664 7.035 15.701 15.701 15.701 8.664 0 15.701-7.037 15.701-15.701v-20.054c9.337-5.441 15.701-15.456 15.701-27.046 0-17.348-14.062-31.41-31.402-31.41s-31.4 14.062-31.4 31.41c0 11.59 6.358 21.605 15.699 27.046z" fill="#fff"/></svg>

<svg xmlns="http://www.w3.org/2000/svg" width="512" height="512" viewBox="0 0 361.118 361.118"><path d="M274.765 141.3V94.205C274.765 42.172 232.583 0 180.559 0c-52.032 0-94.205 42.172-94.205 94.205V141.3c-17.34 0-31.4 14.06-31.4 31.4v157.016c0 17.344 14.06 31.402 31.4 31.402h188.411c17.341 0 31.398-14.059 31.398-31.402V172.7c.001-17.34-14.057-31.4-31.398-31.4zM117.756 94.205c0-34.69 28.12-62.803 62.803-62.803 34.685 0 62.805 28.112 62.805 62.803V141.3H117.756V94.205zm157.009 235.51H86.354V172.708h188.411v157.007zm-109.907-67.157v20.054c0 8.664 7.035 15.701 15.701 15.701 8.664 0 15.701-7.037 15.701-15.701v-20.054c9.337-5.441 15.701-15.456 15.701-27.046 0-17.348-14.062-31.41-31.402-31.41-17.34 0-31.4 14.062-31.4 31.41 0 11.59 6.358 21.605 15.699 27.046z" fill="#FFF"/></svg>
